Yaru++/status/symbolic/battery-full-charging-symbolic.svg

<svg height="16" width="16" xmlns="http://www.w3.org/2000/svg">
  <g fill="#808080">
    <path d="m8 13v-10h5v10z"/>
    <path d="m6 12.338c.01.839-.015 1.451.262 1.953.138.251.374.45.666.56s.64.149 1.078.149h4.994c.439 0 .786-.039 1.078-.148.293-.11.526-.31.664-.56.277-.503.248-1.115.258-1.954v-8.707c-.01-.839.02-1.453-.258-1.955a1.25 1.25 0 0 0 -.664-.559c-.292-.11-.643-.063-1.078-.117h-1v-1h-3v1h-.994c-.438 0-.786.007-1.078.117s-.528.308-.666.559c-.277.502-.252 1.116-.262 1.955v8.705zm1-.014v-8.691c.01-.853.04-1.298.137-1.475.016-.028.057-.073.143-.105.06-.023.298-.053.726-.053h4.994c.428 0 .664.03.727.053.085.032.125.077.14.105.095.173.123.618.133 1.475v8.705c-.01.854-.038 1.298-.133 1.47-.015.03-.055.074-.14.106-.123.046-.349.086-.727.086h-4.994c-.378 0-.604-.04-.726-.086-.086-.032-.127-.077-.143-.105-.098-.178-.126-.62-.137-1.485z"/>
    <path d="m2 14 2.5-6h-1.5v-5l-2.5 6h1.5z"/>
  </g>
</svg>

<svg height="16" width="16" xmlns="http://www.w3.org/2000/svg">
    <g fill="gray">
        <path color="#000" d="M8 13V3h5v10z" overflow="visible" style="marker:none"/>
        <path color="#000" d="M6 12.338c.01.839-.015 1.451.262 1.953.138.251.374.45.666.56.292.11.64.149 1.078.149H13c.439 0 .786-.039 1.078-.148.293-.11.526-.31.664-.56.277-.503.248-1.115.258-1.954V3.631c-.01-.839.02-1.453-.258-1.955a1.25 1.25 0 00-.664-.559c-.292-.11-.643-.063-1.078-.117h-1V0H9v1h-.994c-.438 0-.786.007-1.078.117-.292.11-.528.308-.666.559-.277.502-.252 1.116-.262 1.955v8.705zm1-.014V3.633c.01-.853.04-1.298.137-1.475.016-.028.057-.073.143-.105.06-.023.298-.053.726-.053H13c.428 0 .664.03.727.053.085.032.125.077.14.105.095.173.123.618.133 1.475v8.705c-.01.854-.038 1.298-.133 1.47-.015.03-.055.074-.14.106-.123.046-.349.086-.727.086H8.006c-.378 0-.604-.04-.726-.086-.086-.032-.127-.077-.143-.105-.098-.178-.126-.62-.137-1.485z" font-family="sans-serif" font-weight="400" overflow="visible" style="line-height:normal;font-variant-ligatures:none;font-variant-position:normal;font-variant-caps:normal;font-variant-numeric:normal;font-variant-alternates:normal;font-feature-settings:normal;text-indent:0;text-align:start;text-decoration-line:none;text-decoration-style:solid;text-decoration-color:#000;text-transform:none;shape-padding:0;isolation:auto;mix-blend-mode:normal;marker:none"/>
        <path d="M2 14l2.5-6H3V3L.5 9H2z"/>
    </g>
</svg>
